X: 7341
T:L\aa{}ngdans fr Mora
R:Longdans
O:Sweden
M:3/4
A:Dalarna
K:D
D3E FG|A2A2 AB|A2F2G2| A3G FE|\
D3E FG|A2A2 AB|A2F2 G2|A4 A2||
F2A2 G2|E2G2 F2|D2F2 E2|D4 A2|\
F2A2 G2|E2G2 F2|D2F2 E2|D4|]
